X: 1509
T: Niyaz-ı Nağme-i Dil Yâre
C: Çömlekçizâde Recep Çelebi
O: Turkey
F: http://compmusic.upf.edu/node/140
N: buselik--agirsemai--aksaksemai--niyaz-i_nagme-i--comlekcizade_recep_celebi
N: makam= buselik
N: form= agirsemai
N: usul= aksaksemai = 10/8
M: 10/8
L: 1/16
K: C    
Q: 1/4=108
%%MIDI tuningsystem comma53
e4 g2e6 d2e3dc2  | d4 e2f3ed2 e2e6  | \
w:  Ah  ni yaz_ ı  nağ  |  me  i  dil  *  *  *  yâ  | 
e4 G2c6 e2d2 c2B2  | 
w:  *  re  bî  ze ban   | 
A4 e2d3cd2 e2e6  | z4 d2gf edc2 Bcd2 cBA2  | \
w:  o ku nur    |  Ca nım  *  *  *  ca *  *  nım   | 
c6B2 A2^G2 A2B2 c2d2  | 
w:  ca nım  *  *  a man   | 
d4 cBA4Bc Bcd4e2  | c4 f2e2 d2c2 B2A4z2  | \
w:  ya re  *  bî  ze *  *  *  ban   |  o ku nur    | 
e4 g2e6 d2e3dc2  | 
w:  Ah  ni yaz_ ı  nağ  | 
d4 e2f3ed2 e2e6  | e4 G2c6 e2d2 c2B2  | \
w:  me  i  dil  *  *  *  yâ  |  *  re  bî  ze ban   | 
A4 e2d3cd2 e2e6  | 
w:  o ku nur    | 
z4 d2gf edc2 Bcd2 cBA2  | c6B2 A2^G2 A2B2 c2d2  | 
w:  Ca nım  *  *  *  ca *  *  nım   |  ca nım  *  *  a man   | 
d4 cBA4Bc Bcd4e2  | c4 f2e2 d2c2 B2A4z2  | \
w:  ya re  *  bî  ze *  *  *  ban   |  o ku nur    | 
g4 d2g6 ^f2g4f2  | 
w:  Ah  sa da yı  nâ  | 
g4 ^f2g3fa4g2 fefg  | ^f4 d2f3ef2 g2a4g2  | \
w:  re  de ğil  *  *  gar  |  *  ka ge *  *  hi  aşk  | 
g3^f e2f4g4e4z2  | 
w:  tır  *  *  *  *  bu    | 
f6f2 e2e2 d2e3dc2  | c6B2 A2^G2 A2B2 c2d2  | \
w:  Ca nım  *  ca *  nım   |  ca nım  *  a *  man   | 
d4 cBA4Bc Bcd4e2  | 
w:  gar ka *  ge hi  *  *  *  aşk  | 
c4 f2e2 d2c2 B2A4z2  | e4 g2e6 d2e3dc2  | \
w:  tır  *  *  *  *  *  bu    |  Ah  se fi ne  i   | 
d4 e2f3ed2 e2e6  | 
w:  dil_ i  güm *  *  *  keş  | 
e4 G2c6 e2d2 c2B2  | A4 e2d3cd2 e2e6  | \
w:  *  te de  e zan_  |  o ku nur    | 
z4 d2gf edc2 Bcd2 cBA2  | 
w:  Ca nım  *  *  *  ca *  *  nım   | 
c6B2 A2^G2 A2B2 c2d2  | d4 cBA4Bc Bcd4e2  | \
w:  ca nım  *  *  a man   |  ah  *  *  *  e *  *  *  zan_  | 
c4 f2e2 d2c2 B2A4z2  | 
w:  o ku nur    | 
|


